X:1
T:Wee Michael's March
R:March
C:John McCusker
M:3/4
L:1/8
Q:"80 bpm"
K:D
[|{gef}e d/e | {ge}f2 {g}fa {f}g{a}f | e<{g}G {dc}d2 {g}B<{d}G | {g}A3 f g<{a}f | {gef}e3 A {gef}e d/e | 
{ge}f2 {g}fa {f}g{a}f | g<{a}G {dc}d2 {g}B/A/G | {g}A3 {ge}f {g}e>>{gef}e | d3 A {gef}e d/e |
{ge}f2 {g}fa {f}g{a}f | e<{g}G {dc}d2 {g}B<{d}G | {g}A3 f g<{a}f | {gef}e3 {A}e {g}fg | 
{ag}a2 f>a {f}g{a}f | g<{a}G {dc}d2 {g}B/A/G | {g}A3 {ge}f {g}e>>{gef}e | d3 A {Gdc}de/f/ ||
{gf}g2 {f}g{a}f {a}g<a | {e}f2 {gf}ed {g}d<{e}(B [M:2/4] | B)A g<{a}f [M:3/4] | {gef}e4 {Gdc}de/f/ |
{gf}g2 {f}g{a}f {a}g<a | {e}f2 {gf}ed {g}d<{e}(A [M:2/4] | A){ge}f {g}e>>{gef}e [M:3/4] | d3 A {Gdc}de/f/ |
{gf}g2 {f}g{a}f {a}g<a | {e}f2 {gf}ed {g}d<{e}(B [M:2/4] | B)A g<{a}f [M:3/4] | {gef}e3 {A}e {g}fg |
{ag}a2 f>a {f}g{a}f | g<{a}G {dc}d2 {g}B/A/G | {g}A3 {ge}f {g}e>>{gef}e |  "Play full beat off on beat 2"d2 z4 |] 

